actions/22x22-dark/kdenlive-hide-video.svg

<svg xmlns="http://www.w3.org/2000/svg" viewBox="0 0 22 22">
 <defs id="defs3051">
   <style type="text/css" id="current-color-scheme">
     .ColorScheme-Text {
       color:#f2f2f2;
     }
     </style>
 </defs>
   <path
      style="fill:currentColor;fill-opacity:1;stroke:none"
      d="m15.460938 3.0019531c-.033378.0049815-.072597.0208987-.115235.046875-.085563.0523835-.161594.1290144-.230469.2324219l-1.15625 1.734375h-6.2929684c-.1406568 0-.2558594.1135392-.2558594.2539062v.3164063c0 .1407588-.113244.2558594-.2539062.2558594h-.5527344c-.1406461 0-.2539062-.1155031-.2539062-.2558594v-.3164063c0-.1405656-.1151918-.2539062-.2558594-.2539062h-.5722656c-.1406676 0-.2539063.1135392-.2539063.2539062v11.4609378c0 .140565.1132387.253906.2539063.253906h.4648437l-.5234375.787109c-.0687776.103262-.1099022.203838-.125.302735-.0150985.098896.0007727.165261.0488282.197265l1.0664062.710938c.0481881.032095.1156669.020752.2011719-.03125.0853698-.052092.1616911-.12916.2304687-.232422l1.15625-1.734375h6.2734374c.140668 0 .255859-.113539.255859-.253906v-.232422c0-.140764.113245-.255859.253907-.255859h.552734c.140657 0 .253906.115497.253906.255859v.232422c0 .140565.115187.253906.25586.253906h.591797c.140656 0 .253906-.113539.253906-.253906v-11.4609378c0-.1405656-.11325-.2539062-.253906-.2539062h-.464844l.523437-.7871094c.068874-.1034059.109737-.2037376.125-.3027344.015028-.0989378-.00064-.1651702-.048828-.1972656l-1.066406-.7109375c-.024026-.0160022-.05256-.0206064-.085937-.015625zm.166015 2.5917969c-.003268.0908751-.058597.1567909-.132812.1992188zm-6.8398436.5136719h4.4257816c.005978 0 .009749.0054532.015625.0058593l-1.697266 2.5488282h-2.7441406c-.1406676 0-.2558594-.1136412-.2558594-.2539063v-2.046875c0-.1405656.1151864-.2539062.2558594-.2539062zm-2.1835938.9804687h.5527344c.1406622 0 .2539062.1153957.2539062.2558594v.5527344c0 .1407642-.113244.2539062-.2539062.2539062h-.5527344c-.1406461 0-.2539062-.1135445-.2539062-.2539062v-.5527344c0-.1407588.1132601-.2558594.2539062-.2558594zm8.2207034 0h .552734c.140657 0 .253906.1153957.253906.2558594v.5527344c0 .1407642-.113249.2539062-.253906.2539062h-.552734c-.140652 0-.253907-.1135445-.253907-.2539062v-.5527344c0-.1407588.113255-.2558594.253907-.2558594zm-8.2207034 2.2890625h.5527344c.1406622 0 .2539062.1154923.2539062.2558594v.5507815c0 .140764-.113244.255859-.2539062.255859h-.5527344c-.1406461 0-.2539062-.115498-.2539062-.255859v-.5507815c0-.1406676.1132601-.2558594.2539062-.2558594zm8.2207034 0h .552734c.140657 0 .253906.1154923.253906.2558594v.5507815c0 .140764-.113249.255859-.253906.255859h-.552734c-.140652 0-.253907-.115498-.253907-.255859v-.5507815c0-.1406676.113255-.2558594.253907-.2558594zm-6.0371096.3457031h2.0371096l-1.7011721 2.5546878h-.3359375c-.1406676 0-.2558594-.113448-.2558594-.253906v-2.0468755c0-.1407588.1151864-.2539063.2558594-.2539063zm4.0898436 0h .335938c.140656 0 .255859.11355.255859.2539063v2.0468755c0 .140656-.115203.253906-.255859.253906h-2.03711zm-6.2734374 1.9433598h.5527344c.1406622 0 .2539062.113641.2539062.253906v.552734c0 .140764-.113244.253906-.2539062.253906h-.5527344c-.1406461 0-.2539062-.113544-.2539062-.253906v-.552734c0-.140668.1132601-.253906.2539062-.253906zm8.2207034 0h .552734c.140657 0 .253906.113641.253906.253906v.552734c0 .140764-.113249.253906-.253906.253906h-.552734c-.140652 0-.253907-.113544-.253907-.253906v-.552734c0-.140668.113255-.253906.253907-.253906zm-4.355469 1.671875h2.744141c.140656 0 .255859.113442.255859.253906v2.046875c0 .140667-.115203.253906-.255859.253906h-4.4257816c-.0059791 0-.009749-.005453-.015625-.005859zm-3.8652344.617187h.5527344c.1406622 0 .2539062.113641.2539062.253906v.552735c0 .14056-.113244.253906-.2539062.253906h-.5527344c-.1406461 0-.2539062-.113743-.2539062-.253906v-.552735c0-.140667.1132601-.253906.2539062-.253906zm8.2207034 0h .552734c.140657 0 .253906.113641.253906.253906v.552735c0 .14056-.113249.253906-.253906.253906h-.552734c-.140652 0-.253907-.113743-.253907-.253906v-.552735c0-.140667.113255-.253906.253907-.253906zm-8.3906252 2.359375-.0214844.03125c.008369-.010592.0115639-.022118.0214844-.03125z"
      class="ColorScheme-Text" />
</svg>

<svg xmlns="http://www.w3.org/2000/svg" viewBox="0 0 22 22">
  <defs id="defs3051">
    <style type="text/css" id="current-color-scheme">
      .ColorScheme-Text {
        color:#f2f2f2
      }
      </style>
  </defs>
 <path 
     style="fill:currentColor;fill-opacity:1;stroke:none"      
	 class="ColorScheme-Text"
        d="M 15.460938 3.0019531 C 15.42756 3.0069346 15.388341 3.0228518 15.345703 3.0488281 C 15.26014 3.1012116 15.184109 3.1778425 15.115234 3.28125 L 13.958984 5.015625 L 7.6660156 5.015625 C 7.5253588 5.015625 7.4101562 5.1291642 7.4101562 5.2695312 L 7.4101562 5.5859375 C 7.4101562 5.7266963 7.2969122 5.8417969 7.15625 5.8417969 L 6.6035156 5.8417969 C 6.4628695 5.8417969 6.3496094 5.7262938 6.3496094 5.5859375 L 6.3496094 5.2695312 C 6.3496094 5.1289656 6.2344176 5.015625 6.09375 5.015625 L 5.5214844 5.015625 C 5.3808168 5.015625 5.2675781 5.1291642 5.2675781 5.2695312 L 5.2675781 16.730469 C 5.2675781 16.871034 5.3808168 16.984375 5.5214844 16.984375 L 5.9863281 16.984375 L 5.4628906 17.771484 C 5.394113 17.874746 5.3529884 17.975322 5.3378906 18.074219 C 5.3227921 18.173115 5.3386633 18.23948 5.3867188 18.271484 L 6.453125 18.982422 C 6.5013131 19.014517 6.5687919 19.003174 6.6542969 18.951172 C 6.7396667 18.89908 6.815988 18.822012 6.8847656 18.71875 L 8.0410156 16.984375 L 14.314453 16.984375 C 14.455121 16.984375 14.570312 16.870836 14.570312 16.730469 L 14.570312 16.498047 C 14.570312 16.357283 14.683557 16.242188 14.824219 16.242188 L 15.376953 16.242188 C 15.51761 16.242188 15.630859 16.357685 15.630859 16.498047 L 15.630859 16.730469 C 15.630859 16.871034 15.746046 16.984375 15.886719 16.984375 L 16.478516 16.984375 C 16.619172 16.984375 16.732422 16.870836 16.732422 16.730469 L 16.732422 5.2695312 C 16.732422 5.1289656 16.619172 5.015625 16.478516 5.015625 L 16.013672 5.015625 L 16.537109 4.2285156 C 16.605983 4.1251097 16.646846 4.024778 16.662109 3.9257812 C 16.677137 3.8268434 16.661469 3.760611 16.613281 3.7285156 L 15.546875 3.0175781 C 15.522849 3.0015759 15.494315 2.9969717 15.460938 3.0019531 z M 15.626953 5.59375 C 15.623685 5.6846251 15.568356 5.7505409 15.494141 5.7929688 L 15.626953 5.59375 z M 8.7871094 6.1074219 L 13.212891 6.1074219 C 13.218869 6.1074219 13.22264 6.1128751 13.228516 6.1132812 L 11.53125 8.6621094 L 8.7871094 8.6621094 C 8.6464418 8.6621094 8.53125 8.5484682 8.53125 8.4082031 L 8.53125 6.3613281 C 8.53125 6.2207625 8.6464364 6.1074219 8.7871094 6.1074219 z M 6.6035156 7.0878906 L 7.15625 7.0878906 C 7.2969122 7.0878906 7.4101562 7.2032863 7.4101562 7.34375 L 7.4101562 7.8964844 C 7.4101562 8.0372486 7.2969122 8.1503906 7.15625 8.1503906 L 6.6035156 8.1503906 C 6.4628695 8.1503906 6.3496094 8.0368461 6.3496094 7.8964844 L 6.3496094 7.34375 C 6.3496094 7.2029912 6.4628695 7.0878906 6.6035156 7.0878906 z M 14.824219 7.0878906 L 15.376953 7.0878906 C 15.51761 7.0878906 15.630859 7.2032863 15.630859 7.34375 L 15.630859 7.8964844 C 15.630859 8.0372486 15.51761 8.1503906 15.376953 8.1503906 L 14.824219 8.1503906 C 14.683567 8.1503906 14.570312 8.0368461 14.570312 7.8964844 L 14.570312 7.34375 C 14.570312 7.2029912 14.683567 7.0878906 14.824219 7.0878906 z M 6.6035156 9.3769531 L 7.15625 9.3769531 C 7.2969122 9.3769531 7.4101562 9.4924454 7.4101562 9.6328125 L 7.4101562 10.183594 C 7.4101562 10.324358 7.2969122 10.439453 7.15625 10.439453 L 6.6035156 10.439453 C 6.4628695 10.439453 6.3496094 10.323955 6.3496094 10.183594 L 6.3496094 9.6328125 C 6.3496094 9.4921449 6.4628695 9.3769531 6.6035156 9.3769531 z M 14.824219 9.3769531 L 15.376953 9.3769531 C 15.51761 9.3769531 15.630859 9.4924454 15.630859 9.6328125 L 15.630859 10.183594 C 15.630859 10.324358 15.51761 10.439453 15.376953 10.439453 L 14.824219 10.439453 C 14.683567 10.439453 14.570312 10.323955 14.570312 10.183594 L 14.570312 9.6328125 C 14.570312 9.4921449 14.683567 9.3769531 14.824219 9.3769531 z M 8.7871094 9.7226562 L 10.824219 9.7226562 L 9.1230469 12.277344 L 8.7871094 12.277344 C 8.6464418 12.277344 8.53125 12.163896 8.53125 12.023438 L 8.53125 9.9765625 C 8.53125 9.8358037 8.6464364 9.7226562 8.7871094 9.7226562 z M 12.876953 9.7226562 L 13.212891 9.7226562 C 13.353547 9.7226562 13.46875 9.8362062 13.46875 9.9765625 L 13.46875 12.023438 C 13.46875 12.164094 13.353547 12.277344 13.212891 12.277344 L 11.175781 12.277344 L 12.876953 9.7226562 z M 6.6035156 11.666016 L 7.15625 11.666016 C 7.2969122 11.666016 7.4101562 11.779657 7.4101562 11.919922 L 7.4101562 12.472656 C 7.4101562 12.61342 7.2969122 12.726562 7.15625 12.726562 L 6.6035156 12.726562 C 6.4628695 12.726562 6.3496094 12.613018 6.3496094 12.472656 L 6.3496094 11.919922 C 6.3496094 11.779254 6.4628695 11.666016 6.6035156 11.666016 z M 14.824219 11.666016 L 15.376953 11.666016 C 15.51761 11.666016 15.630859 11.779657 15.630859 11.919922 L 15.630859 12.472656 C 15.630859 12.61342 15.51761 12.726562 15.376953 12.726562 L 14.824219 12.726562 C 14.683567 12.726562 14.570312 12.613018 14.570312 12.472656 L 14.570312 11.919922 C 14.570312 11.779254 14.683567 11.666016 14.824219 11.666016 z M 10.46875 13.337891 L 13.212891 13.337891 C 13.353547 13.337891 13.46875 13.451333 13.46875 13.591797 L 13.46875 15.638672 C 13.46875 15.779339 13.353547 15.892578 13.212891 15.892578 L 8.7871094 15.892578 C 8.7811303 15.892578 8.7773604 15.887125 8.7714844 15.886719 L 10.46875 13.337891 z M 6.6035156 13.955078 L 7.15625 13.955078 C 7.2969122 13.955078 7.4101562 14.068719 7.4101562 14.208984 L 7.4101562 14.761719 C 7.4101562 14.902279 7.2969122 15.015625 7.15625 15.015625 L 6.6035156 15.015625 C 6.4628695 15.015625 6.3496094 14.901882 6.3496094 14.761719 L 6.3496094 14.208984 C 6.3496094 14.068317 6.4628695 13.955078 6.6035156 13.955078 z M 14.824219 13.955078 L 15.376953 13.955078 C 15.51761 13.955078 15.630859 14.068719 15.630859 14.208984 L 15.630859 14.761719 C 15.630859 14.902279 15.51761 15.015625 15.376953 15.015625 L 14.824219 15.015625 C 14.683567 15.015625 14.570312 14.901882 14.570312 14.761719 L 14.570312 14.208984 C 14.570312 14.068317 14.683567 13.955078 14.824219 13.955078 z M 6.4335938 16.314453 L 6.4121094 16.345703 C 6.4204784 16.335111 6.4236733 16.323585 6.4335938 16.314453 z "
     />
</svg>
